icon_installer/data/icons/scalable/actions/show-strong-language-none-symbolic.svg

<?xml version="1.0" encoding="UTF-8"?>
<svg height="16px" viewBox="0 0 16 16" width="16px" xmlns="http://www.w3.org/2000/svg">
    <g fill="#222222">
        <path d="m 1.53125 0.46875 l -1.0625 1.0625 l 14 14 l 1.0625 -1.0625 z m 0 0"/>
        <path d="m 3 2 v 2 l 3 3 h 1 v 1 l 3 3 h 1 v -2 h -2 v -2 h 2 v -2 h -2 v -3 h -2 v 3 h -2 v -3 z m 9 0 v 9 h 2 v -9 z m -11 3 v 2 h 2 v 2 h -2 v 2 h 2 v 3 h 2 v -3 h 2 v 3 h 2 v -1.878906 l -3.121094 -3.121094 h -0.878906 v -0.878906 l -3.121094 -3.121094 z m 12 7 c -0.523438 0 -1.007812 0.269531 -1.28125 0.71875 l 2.0625 2.0625 c 0.445312 -0.273438 0.71875 -0.757812 0.71875 -1.28125 c 0 -0.828125 -0.671875 -1.5 -1.5 -1.5 z m 0 0"/>
    </g>
</svg>

<svg xmlns="http://www.w3.org/2000/svg" width="16" height="16"><g fill="#222"><path d="M1.531.469.47 1.53l14 14 1.062-1.062zm0 0"/><path d="M3 2v2l3 3h1v1l3 3h1V9H9V7h2V5H9V2H7v3H5V2zm9 0v9h2V2zM1 5v2h2v2H1v2h2v3h2v-3h2v3h2v-1.879L5.879 9H5v-.879L1.879 5zm12 7c-.523 0-1.008.27-1.281.719l2.062 2.062A1.5 1.5 0 0 0 13 12zm0 0"/></g></svg>
